assets/icons/eye-closed.svg

<svg width="32" height="32" viewBox="0 0 32 32" fill="none" xmlns="http://www.w3.org/2000/svg">
<path d="M10.7641 16.2587L5.61608 11.1107C3.58941 13.32 2.82141 15.5334 2.80808 15.5787L2.66675 16L2.80675 16.4214C2.83608 16.5107 5.89475 25.3334 16.0721 25.3334C17.3107 25.3334 18.4387 25.1974 19.4747 24.9694L15.8134 21.308C14.4951 21.2434 13.248 20.6907 12.3147 19.7574C11.3814 18.8241 10.8287 17.577 10.7641 16.2587V16.2587ZM16.0721 6.66671C13.5987 6.66671 11.5721 7.20537 9.88275 7.99737L4.94275 3.05737L3.05741 4.94271L27.0574 28.9427L28.9427 27.0574L24.5454 22.66C28.0627 20.056 29.3174 16.4774 29.3361 16.4214L29.4761 16L29.3361 15.5787C29.3067 15.4894 26.2494 6.66671 16.0721 6.66671ZM18.6134 16.728C18.8627 15.8254 18.6507 14.8094 17.9574 14.1147C17.2641 13.42 16.2467 13.2094 15.3441 13.4587L13.3334 11.448C14.1574 10.9413 15.1048 10.671 16.0721 10.6667C19.0134 10.6667 21.4054 13.0587 21.4054 16C21.4015 16.9671 21.1306 17.9144 20.6227 18.7374L18.6134 16.728V16.728Z" fill="white" fill-opacity="0.4"/>
</svg>

<svg width="32" height="32" fill="none" xmlns="http://www.w3.org/2000/svg"><path d="M10.764 16.259 5.616 11.11c-2.027 2.209-2.795 4.422-2.808 4.468L2.667 16l.14.421c.03.09 3.088 8.912 13.265 8.912 1.239 0 2.367-.136 3.403-.364l-3.662-3.661a5.316 5.316 0 0 1-5.049-5.05zm5.308-9.592c-2.473 0-4.5.538-6.19 1.33l-4.94-4.94-1.885 1.886 24 24 1.886-1.886-4.398-4.397c3.518-2.604 4.772-6.183 4.791-6.239l.14-.421-.14-.421c-.03-.09-3.087-8.912-13.264-8.912zm2.541 10.061c.25-.903.038-1.919-.656-2.613-.693-.695-1.71-.906-2.613-.656l-2.01-2.011a5.273 5.273 0 0 1 2.738-.781A5.339 5.339 0 0 1 21.405 16a5.253 5.253 0 0 1-.782 2.737l-2.01-2.009z" fill="#fff" fill-opacity=".4"/></svg>
